Catalina-dark/actions/22/im-google.svg

<svg xmlns="http://www.w3.org/2000/svg" viewBox="0 0 22 22">
  <defs id="defs3051">
    <style type="text/css" id="current-color-scheme">
      .ColorScheme-Text {
        color:#f2f2f2
      }
      </style>
  </defs>
 <path 
     style="fill:currentColor;fill-opacity:1;stroke:none"      
	 class="ColorScheme-Text"
        d="M 11 3 A 8 8 0 0 0 3 11 A 8 8 0 0 0 11 19 A 8 8 0 0 0 19 11 A 8 8 0 0 0 11 3 z M 11.136719 6.0566406 C 11.842552 6.0566406 12.516536 6.19375 13.158203 6.46875 C 13.79987 6.74375 14.314219 7.1119792 14.699219 7.5703125 L 13.832031 8.4355469 C 13.181198 7.6563802 12.282552 7.2675781 11.136719 7.2675781 C 10.100885 7.2675781 9.2022396 7.6338542 8.4414062 8.3671875 C 7.6897396 9.0913542 7.3144531 10.035052 7.3144531 11.199219 C 7.3144531 12.363385 7.6897396 13.311589 8.4414062 14.044922 C 9.2022396 14.769089 10.100885 15.132812 11.136719 15.132812 C 12.236719 15.132812 13.153385 14.764583 13.886719 14.03125 C 14.363385 13.554583 14.639557 12.891562 14.712891 12.039062 L 11.136719 12.039062 L 11.136719 10.855469 L 15.908203 10.855469 C 15.95407 11.112135 15.976562 11.359323 15.976562 11.597656 C 15.976562 12.972656 15.56974 14.068932 14.753906 14.884766 C 13.828073 15.856432 12.621719 16.341797 11.136719 16.341797 C 9.7158854 16.341797 8.5069792 15.851927 7.5078125 14.871094 C 6.5178125 13.881094 6.0214844 12.656719 6.0214844 11.199219 C 6.0214844 9.7417188 6.5178125 8.5238021 7.5078125 7.5429688 C 8.5069792 6.5529687 9.7158854 6.0566406 11.136719 6.0566406 z "
     />
</svg>

<svg width="22" height="22" viewBox="3 3 16 16" xmlns="http://www.w3.org/2000/svg">
<defs>
<style id="current-color-scheme" type="text/css">.ColorScheme-Text {
        color:#f2f2f2
      }</style>
</defs>
<path class="ColorScheme-Text" d="m11 3a8 8 0 0 0-8 8 8 8 0 0 0 8 8 8 8 0 0 0 8-8 8 8 0 0 0-8-8zm0.13672 3.0566c0.70583 0 1.3798 0.13711 2.0215 0.41211s1.156 0.64323 1.541 1.1016l-0.86719 0.86523c-0.65083-0.77917-1.5495-1.168-2.6953-1.168-1.0358 0-1.9345 0.36628-2.6953 1.0996-0.75167 0.72417-1.127 1.6679-1.127 2.832 0 1.1642 0.37529 2.1124 1.127 2.8457 0.76083 0.72417 1.6595 1.0879 2.6953 1.0879 1.1 0 2.0167-0.36823 2.75-1.1016 0.47667-0.47667 0.75284-1.1397 0.82617-1.9922h-3.5762v-1.1836h4.7715c0.045867 0.25667 0.068359 0.50385 0.068359 0.74219 0 1.375-0.40682 2.4713-1.2227 3.2871-0.92583 0.97167-2.1322 1.457-3.6172 1.457-1.4208 0-2.6297-0.48987-3.6289-1.4707-0.99-0.99-1.4863-2.2144-1.4863-3.6719 0-1.4575 0.49633-2.6754 1.4863-3.6563 0.99917-0.99 2.2081-1.4863 3.6289-1.4863z" fill="currentColor"/>
</svg>
